X:222
T:Fire Down Below (a)
M:C|
L:1/8
Q:1/4=120
K:G
DD|\
GFGA GFED|GFGA GFED|G2A2 B2c2|d6 dd|
dddd BBGG|cccc e2ec|BG3  A3F |G6 ||
